X:1
T:If He Comes
T:If He Comes
T:Barney Elliott Warren
T:Barney Elliott Warren, 1903
T:Public Domain Courtesy of the Cyber Hymnal™
T:Public Domain Courtesy of the Cyber Hymnal™
C:Barney Elliott Warren
Z:Public Domain
Z:Courtesy of the Cyber Hymnal™
%%score ( 1 2 ) ( 3 4 )
L:1/8
Q:1/4=97
M:4/4
K:Db
V:1 treble 
V:2 treble 
V:3 bass 
V:4 bass 
V:1
 [DF]>[EG] | [FA]>[FA] [FA]>[FA] [Fd]2 [GB]2 | [FA]6 [Fd]>[Fd] | [Gc]>[Gc] [Gc]>[Gc] [Ge]2 [Gc]2 | %4
w: 1.~Are you|rea- dy when the Bride- groom|comes? Are you|rea- dy when the Bride- groom|
w: 2.~Are you|rea- dy when the Bride- groom|comes? Are you|rea- dy when the Bride- groom|
w: 3.~Are you|rea- dy when the Bride- groom|comes? Are you|rea- dy when the Bride- groom|
w: 4.~Are you|rea- dy when the Bride- groom|comes? Are you|rea- dy when the Bride- groom|
 [Fd]6 [DF]>[EG] | [FA]>[FA] [FA]>[FA] [Fd]2 [Fd]>[Ac] | %6
w: comes? If He|comes at noon or night, Will it|
w: comes? If He|comes with- out de- lay, Will He|
w: comes? You will|hear Him at the door Say- ing,|
w: comes? If you’re|not pre- pared to go, You will|
 [GB]>[GB] [GB]>[GB] !fermata![=Ge]2 [Ge]>[Gd] | [Ac]>[Ac] [Ac]>[Ac] [Gc]2 [GB]>[GA] | [Fd]6 || %9
w: fill you with de- light, Or will|you de- plore the sight, if He|comes?|
w: find you in dis- may, Plead- ing|for a chance to pray, If He|comes?|
w: “Time shall be no more, Your pro-|ba- tion now is o’er,” if He|comes.|
w: sink to end- less woe, Be for-|ev- er lost, you know, if He|comes.|
"^Refrain" [DF]>[EG] | [FA]6 [Af]>[Ge] x4 | [Fd]6 [FA]>[FA] x2 | %12
w: |||
w: If He|comes, if He|comes, Are you|
w: |||
w: |||
 [GB]>[GB] [GB]>[GB] [=GB]>[GB] [Ge]>[Gd] | c6 [GB]>[FA] | d6 [FA]>[F=A] | [GB]6 [=Ge]>[Gd] x2 | %16
w: ||||
w: rea- dy, watch- ing, wait- ing if He|comes? If He|comes, if He|comes, Are you|
w: ||||
w: ||||
 [Ac]>[Ac] [Ac]>[Ac] [GB]2 [GA]2 | d6 |] %18
w: ||
w: rea- dy if the Bride- groom|comes?|
w: ||
w: ||
V:2
 x2 | x8 | x8 | x8 | x8 | x8 | x8 | x8 | x6 || x2 | x12 | x10 | x8 | (A2 G>G G2) x2 | %14
 (F2 G>G F2) x2 | x10 | x8 | (F2 G2 F2) |] %18
V:3
 [D,A,]>[D,A,] | [D,D]>[D,D] [D,D]>[D,D] [D,A,]2 [D,D]2 | [D,D]6 [D,A,]>[D,A,] | %3
w: ~ ~|~ ~ ~ ~ ~ ~|~ ~ ~|
 A,>A, A,>A, [A,,A,]2 [A,,A,]2 | [D,A,]6 [D,A,]>[D,A,] | %5
w: ~ ~ ~ ~ ~ ~|~ ~ ~|
 [D,D]>[D,D] [D,D]>[D,D] [D,A,]2 [D,A,]>[F,D] | %6
w: ~ ~ ~ ~ ~ ~ ~|
 [G,D]>[G,D] [G,D]>[G,B,] !fermata![E,B,]2 [E,B,]>[E,E] | %7
w: ~ ~ ~ ~ ~ ~ ~|
 [A,E]>[A,E] [A,E]>[A,E] [A,E]2 [A,,A,C]>[A,,A,] | [D,A,]6 || A,>A, | z2 x10 | z2 [D,D]>[D,D] x6 | %12
w: ~ ~ ~ ~ ~ ~ ~|~|~ ~||~ If|
 [G,D]>[G,D] [G,D]>[G,D] [E,D]>[E,D] [E,B,]>[E,E] | [A,E]2 [A,E]>[A,E] ([A,E]2 [A,C]>[A,C]) | %14
w: He comes, ~ if He comes, ~ ~|~ ~ ~ ~ * *|
 [D,D]2 [D,B,]>[D,B,] ([D,A,]2 D>D) | z2 [E,E]>[E,E] x6 | %16
w: ~ ~ ~ ~ * *|~ If|
 [A,E]>[A,E] [A,E]>[A,E] [A,C]2 [A,,A,C]2 | D2 B,2 A,2 |] %18
w: He comes, ~ if He comes,|~ If He|
V:4
 x2 | x8 | x8 | A,>A, A,>A, x4 | x8 | x8 | x8 | x8 | x6 || x2 | D6 D,>D, (D,2 D>A,) | %11
 A,6 D,>D, D,2 | x8 | x8 | x8 | D6 G,>G, G,2 | x8 | D,6 |] %18

